packages/icons/brands/Game.svg

<svg width="24" height="17" viewBox="0 0 24 17" fill="none" xmlns="http://www.w3.org/2000/svg">
<g clip-path="url(#clip0_3217_36217)">
<path d="M7.71847 3.89111C6.6546 3.89111 5.82715 4.72919 5.82715 5.80672C5.82715 6.88425 6.6546 7.72233 7.71847 7.72233C8.78234 7.72233 9.6098 6.88425 9.6098 5.80672C9.6098 4.72919 8.72324 3.89111 7.71847 3.89111Z" fill="#59DAAF"/>
<path d="M16.7618 0C13.2747 1.73602 10.9697 1.55643 7.36432 0C1.0402 0 -2.56514 16.9412 2.16318 16.9412C6.18224 16.9412 6.71418 11.9726 12.1517 11.9726C16.5845 11.9726 19.1851 16.8813 22.1403 16.8813C26.7504 16.8813 21.963 0 16.7618 0ZM7.71895 8.97942C6.00493 8.97942 4.64554 7.60258 4.64554 5.86656C4.64554 4.13053 6.00493 2.75369 7.71895 2.75369C9.43296 2.75369 10.7923 4.13053 10.7923 5.86656C10.7923 7.60258 9.37386 8.97942 7.71895 8.97942ZM14.7523 6.04614C14.2795 5.92642 14.0431 5.44752 14.2204 4.96861C14.3386 4.54957 14.8114 4.25026 15.2842 4.42985C15.7571 4.54957 15.9935 5.02848 15.8162 5.50738C15.698 5.92642 15.2251 6.16587 14.7523 6.04614ZM16.821 7.36313C16.7027 7.78217 16.2299 8.08148 15.7571 7.90189C15.2842 7.78217 15.0478 7.30326 15.2251 6.82436C15.3434 6.40532 15.8162 6.10601 16.289 6.2856C16.7027 6.46518 16.9983 6.94409 16.821 7.36313ZM16.9392 5.32779C16.4663 5.20807 16.2299 4.72916 16.4072 4.25026C16.5254 3.83122 16.9983 3.53191 17.4711 3.71149C17.9439 3.83122 18.1803 4.31012 18.003 4.78903C17.8257 5.20807 17.3529 5.44752 16.9392 5.32779ZM19.0669 6.7645C18.9487 7.18354 18.4759 7.48285 18.003 7.30326C17.5302 7.18354 17.2938 6.70464 17.4711 6.22573C17.5893 5.80669 18.0621 5.50738 18.535 5.68697C18.9487 5.80669 19.1851 6.2856 19.0669 6.7645Z" fill="url(#paint0_radial_3217_36217)"/>
</g>
<defs>
<radialGradient id="paint0_radial_3217_36217" cx="0" cy="0" r="1" gradientUnits="userSpaceOnUse" gradientTransform="translate(6.08304 -11.2941) rotate(-90) scale(26.5075 13.2079)">
<stop stop-color="#7769EF"/>
<stop offset="1" stop-color="#492BFB"/>
</radialGradient>
<clipPath id="clip0_3217_36217">
<rect width="24" height="16.9412" fill="white"/>
</clipPath>
</defs>
</svg>

<svg xmlns="http://www.w3.org/2000/svg" fill="none" viewBox="0 0 24 17">
    <g clip-path="url(#Game_svg__a)">
        <path fill="#59DAAF" d="M7.718 3.891c-1.063 0-1.89.838-1.89 1.916 0 1.077.827 1.915 1.89 1.915 1.064 0 1.892-.838 1.892-1.915A1.917 1.917 0 0 0 7.718 3.89Z"/>
        <path fill="url(#Game_svg__b)" d="M16.762 0c-3.487 1.736-5.792 1.556-9.398 0-6.324 0-9.93 16.941-5.2 16.941 4.018 0 4.55-4.968 9.988-4.968 4.432 0 7.033 4.908 9.988 4.908C26.75 16.881 21.963 0 16.762 0ZM7.719 8.98c-1.714 0-3.073-1.377-3.073-3.113s1.359-3.113 3.073-3.113 3.073 1.377 3.073 3.113S9.374 8.979 7.72 8.979Zm7.033-2.934c-.473-.12-.709-.598-.532-1.077.119-.42.591-.719 1.064-.54.473.12.71.6.532 1.078-.118.42-.59.659-1.064.54Zm2.069 1.317a.812.812 0 0 1-1.064.539c-.473-.12-.71-.599-.532-1.078a.812.812 0 0 1 1.064-.538c.414.18.71.658.532 1.077Zm.118-2.035c-.473-.12-.71-.599-.532-1.078a.813.813 0 0 1 1.064-.539c.473.12.71.6.532 1.078-.177.42-.65.659-1.064.539Zm2.128 1.436a.813.813 0 0 1-1.064.54c-.473-.12-.71-.6-.532-1.078a.812.812 0 0 1 1.064-.539c.414.12.65.599.532 1.077Z"/>
    </g>
    <defs>
        <radialGradient id="Game_svg__b" cx="0" cy="0" r="1" gradientTransform="matrix(0 -26.5075 13.2079 0 6.083 -11.294)" gradientUnits="userSpaceOnUse">
            <stop stop-color="#7769EF"/>
            <stop offset="1" stop-color="#492BFB"/>
        </radialGradient>
        <clipPath id="Game_svg__a">
            <path fill="#fff" d="M0 0h24v16.941H0z"/>
        </clipPath>
    </defs>
</svg>
